assets/img/Draco-saludando.svg

<svg width="236" height="314" viewBox="0 0 236 314" fill="none" xmlns="http://www.w3.org/2000/svg">
<g clip-path="url(#clip0)">
<path d="M231.073 202.404L222.226 192.339C221.639 191.67 220.927 191.123 220.129 190.73C219.331 190.337 218.463 190.105 217.576 190.048C216.688 189.99 215.798 190.108 214.956 190.395C214.114 190.682 213.337 191.132 212.669 191.719L211.162 193.164C208.828 159.871 202.987 129.852 193.484 102.427C189.895 92.2174 181.128 86.2783 170.324 86.673C159.836 86.9666 149.373 87.8652 138.989 89.3644C137.418 83.219 136.234 76.9928 139.733 76.329C166.196 71.296 224.756 71.8432 225.429 58.3861C225.582 50.6976 223.976 23.1912 217.99 6.58508C215.298 -1.35464 187.642 -4.56641 188.199 11.0708C188.531 25.5238 207.213 53.8107 192.82 56.5559L166.752 61.5171C161.691 62.4771 164.105 45.4852 159.286 45.6018C158.12 45.8171 148.518 46.4272 149.837 50.9847C150.376 51.6844 155.464 63.6164 150.412 64.5764C143.018 65.9849 127.781 66.4604 129.19 73.8528L131.325 85.2286C131.623 87.0653 132.101 88.8683 132.752 90.6115L132.366 90.6922L112.912 94.3884L112.526 94.4692C112.49 92.61 112.271 90.7588 111.871 88.9428L109.726 77.6657C108.318 70.2732 93.9781 75.4228 86.584 76.8224C81.523 77.7913 81.882 64.8186 81.7294 64.0471C81.6576 59.2115 72.5048 62.1541 71.3382 62.3784C66.8516 64.0381 75.3045 78.9576 70.2435 79.9175L44.1758 84.8787C29.8184 87.5702 36.7638 54.4387 31.7656 40.9187C26.5431 26.1518 2.02783 39.2859 2.41368 47.6742C2.95209 65.312 11.1717 91.5624 14.5278 98.5781C20.0823 110.824 74.3533 88.8082 100.816 83.7752C104.315 83.1114 105.5 89.3375 106.299 95.6355C96.3291 98.3269 86.3597 101.018 76.148 104.607C65.9363 108.195 59.9959 116.961 60.3997 127.762C62.0718 159.814 68.1097 191.488 78.3465 221.908C81.9358 232.118 90.6938 238.057 101.498 237.653C127.369 236.497 153.017 232.333 177.924 225.246L175.232 227.874C155.564 233.405 135.445 237.185 115.11 239.169C110.923 239.558 106.777 239.857 102.673 240.067L81.5589 261.069C80.2871 262.341 79.5726 264.065 79.5726 265.864C79.5726 267.662 80.2871 269.387 81.5589 270.659L91.0348 280.133C92.307 281.404 94.0322 282.119 95.8311 282.119C97.63 282.119 99.3552 281.404 100.627 280.133L111.081 269.681C109.385 287.812 108.614 304.67 110.543 309.38C111.081 311.039 113.235 312.152 114.94 312.17L122.119 312.215H128.732C129.71 312.166 130.665 311.899 131.527 311.433C132.389 310.967 133.135 310.315 133.712 309.523C135.115 307.602 135.901 305.299 135.965 302.92L136.108 281.972L149.344 282.062L163.136 282.151L162.992 303.109C162.992 305.863 163.513 308.07 165.155 309.739C165.671 310.588 166.397 311.291 167.263 311.779C168.128 312.268 169.105 312.526 170.099 312.529L176.722 312.574L183.335 312.618C185.543 312.618 187.759 311.542 188.324 309.927C191.294 303.001 188.62 268.829 185.543 243.879L230.463 211.977C231.812 210.787 232.633 209.111 232.748 207.317C232.862 205.522 232.26 203.756 231.073 202.404Z" fill="url(#paint0_linear)"/>
<path d="M156.954 176.639C168.545 176.639 177.942 167.244 177.942 155.654C177.942 144.065 168.545 134.67 156.954 134.67C145.362 134.67 135.965 144.065 135.965 155.654C135.965 167.244 145.362 176.639 156.954 176.639Z" fill="#FEFEFE"/>
<path d="M96.0154 163.379H114.213C116.593 163.379 118.876 164.324 120.559 166.006C122.241 167.689 123.187 169.971 123.187 172.35V174.674H87.042V172.35C87.042 169.971 87.9874 167.689 89.6702 166.006C91.3531 164.324 93.6355 163.379 96.0154 163.379Z" fill="#FEFEFE"/>
</g>
<defs>
<linearGradient id="paint0_linear" x1="117.587" y1="0.0449054" x2="117.587" y2="312.654" gradientUnits="userSpaceOnUse">
<stop stop-color="#00C4D1"/>
<stop offset="1" stop-color="#9D3BFF"/>
</linearGradient>
<clipPath id="clip0">
<rect width="236" height="314" fill="white"/>
</clipPath>
</defs>
</svg>

<svg xmlns="http://www.w3.org/2000/svg" width="236" height="314" fill="none" xmlns:v="https://vecta.io/nano"><g clip-path="url(#B)"><path d="M231.073 202.404l-8.847-10.065a6.77 6.77 0 0 0-2.097-1.609 6.76 6.76 0 0 0-2.553-.682c-.888-.058-1.778.06-2.62.347s-1.62.737-2.287 1.324l-1.507 1.445c-2.334-33.293-8.175-63.312-17.678-90.737-3.59-10.2-12.356-16.15-23.16-15.754-10.488.294-20.95 1.192-31.335 2.69-1.57-6.145-2.755-12.372.744-13.035 26.463-5.033 85.023-4.486 85.696-17.943.153-7.688-1.453-35.195-7.44-51.8-2.692-7.94-30.348-11.15-29.79 4.486.332 14.453 19.014 42.74 4.62 45.485l-26.068 4.96c-5.06.96-2.647-16.032-7.466-15.915-1.166.215-10.768.825-9.45 5.383.54.7 5.627 12.632.575 13.592-7.394 1.408-22.63 1.884-21.222 9.276l2.135 11.376c.298 1.837.776 3.64 1.427 5.383l-.386.08-19.454 3.696-.386.08a28.23 28.23 0 0 0-.655-5.526l-2.145-11.277c-1.408-7.392-15.748-2.243-23.142-.843-5.06.97-4.702-12.004-4.855-12.775-.072-4.836-9.225-1.893-10.39-1.67-4.487 1.66 3.966 16.58-1.095 17.54l-26.068 4.96c-14.357 2.692-7.412-30.44-12.4-43.96-5.222-14.767-29.738-1.633-29.352 6.755.538 17.638 8.758 43.888 12.114 50.904 5.555 12.246 59.826-9.77 86.288-14.803 3.5-.664 4.684 5.562 5.483 11.86-9.97 2.69-19.94 5.383-30.15 8.972S59.996 116.96 60.4 127.762c1.672 32.052 7.7 63.726 17.947 94.146 3.59 10.2 12.347 16.15 23.152 15.745 25.87-1.156 51.52-5.32 76.426-12.407l-2.692 2.628a346.3 346.3 0 0 1-60.122 11.295c-4.187.39-8.333.688-12.437.898L81.56 261.07a6.78 6.78 0 0 0 0 9.59l9.476 9.474c1.272 1.27 2.997 1.986 4.796 1.986s3.524-.715 4.796-1.986l10.454-10.452c-1.696 18.13-2.467 34.99-.538 39.7.538 1.66 2.692 2.772 4.397 2.8l7.18.045h6.613a6.57 6.57 0 0 0 2.795-.782c.862-.466 1.608-1.118 2.185-1.9a11.73 11.73 0 0 0 2.253-6.603l.143-20.948 27.028.18-.144 20.958c0 2.754.52 4.96 2.163 6.63a5.8 5.8 0 0 0 4.944 2.79l13.236.09c2.208 0 4.424-1.076 4.99-2.69 2.97-6.926.296-41.098-2.78-66.048l44.92-31.902c1.35-1.2 2.17-2.866 2.285-4.66a6.79 6.79 0 0 0-1.675-4.913z" fill="url(#A)"/><g fill="#fefefe"><path d="M156.954 176.64a20.99 20.99 0 0 0 20.988-20.985 20.99 20.99 0 0 0-20.988-20.984 20.99 20.99 0 0 0-20.989 20.984 20.99 20.99 0 0 0 20.989 20.985zm-60.94-13.26h18.198a8.98 8.98 0 0 1 6.346 2.627c1.682 1.683 2.628 3.965 2.628 6.344v2.324H87.042v-2.324a8.97 8.97 0 0 1 2.628-6.344c1.683-1.684 3.965-2.627 6.345-2.627z"/></g></g><defs><linearGradient id="A" x1="117.587" y1=".045" x2="117.587" y2="312.654" gradientUnits="userSpaceOnUse"><stop stop-color="#00c4d1"/><stop offset="1" stop-color="#9d3bff"/></linearGradient><clipPath id="B"><path fill="#fff" d="M0 0h236v314H0z"/></clipPath></defs></svg>
